assets/images/2026-03-15-systems-thinking-emergence-03-feedback-loops.svg

<svg xmlns="http://www.w3.org/2000/svg" font-family="ui-serif, Georgia, 'Times New Roman', serif" viewBox="0 0 640 280">
  <path fill="#faf9f5" d="M0 0h640v280H0z"/>
  <text x="320" y="26" fill="#141413" font-size="13" font-weight="500" letter-spacing="-.02em" text-anchor="middle">反馈回路：系统的&quot;神经系统&quot;</text>
  <text x="320" y="42" fill="#87867f" font-family="ui-monospace, monospace" font-size="10" text-anchor="middle">增强回路 vs 平衡回路</text>
  <rect width="286" height="196" x="24" y="56" fill="#fff" stroke="#d97757" stroke-width="1.5" rx="8"/>
  <text x="167" y="78" fill="#d97757" font-family="ui-monospace, monospace" font-size="11" font-weight="600" text-anchor="middle">正反馈回路 · 增强回路</text>
  <circle cx="167" cy="160" r="62" fill="none" stroke="#d97757" stroke-dasharray="6,4" stroke-width="2" opacity=".7"/>
  <path fill="#d97757" d="m167 98-6 14h12z" opacity=".7"/>
  <rect width="74" height="24" x="130" y="82" fill="#d97757" rx="5"/>
  <text x="167" y="98" fill="#fff" font-family="ui-monospace, monospace" font-size="9.5" text-anchor="middle">Agent 加入</text>
  <rect width="78" height="24" x="200" y="120" fill="#fff" stroke="#d97757" stroke-width="1.5" rx="5"/>
  <text x="239" y="136" fill="#141413" font-family="ui-monospace, monospace" font-size="9.5" text-anchor="middle">系统能力增强</text>
  <rect width="74" height="24" x="130" y="204" fill="#fff" stroke="#d97757" stroke-width="1.5" rx="5"/>
  <text x="167" y="220" fill="#141413" font-family="ui-monospace, monospace" font-size="9.5" text-anchor="middle">吸引更多 Agent</text>
  <rect width="74" height="24" x="58" y="120" fill="#fff" stroke="#d97757" stroke-width="1.5" rx="5"/>
  <text x="95" y="136" fill="#141413" font-family="ui-monospace, monospace" font-size="9.5" text-anchor="middle">数据质量↑</text>
  <path fill="none" stroke="#d97757" stroke-width="1.5" d="M167 106v12"/>
  <path fill="#d97757" d="m167 120-4-8h8z"/>
  <path fill="none" stroke="#d97757" stroke-width="1.5" d="m239 146 9 4q4 5 0 10l-44 40m0 4-4-6q-5-3-10 2l-22 4m-38 0-8-4q-7-5-7-12v-42m0-2 7 6q5 5 10 0l36-30"/>
  <rect width="286" height="196" x="330" y="56" fill="#fff" stroke="#788c5d" stroke-width="1.5" rx="8"/>
  <text x="473" y="78" fill="#788c5d" font-family="ui-monospace, monospace" font-size="11" font-weight="600" text-anchor="middle">负反馈回路 · 平衡回路</text>
  <path stroke="#788c5d" stroke-width="1.5" d="M473 100v118m-83-58h166" opacity=".4"/>
  <rect width="60" height="24" x="405" y="96" fill="#788c5d" rx="5"/>
  <text x="435" y="112" fill="#fff" font-family="ui-monospace, monospace" font-size="9.5" text-anchor="middle">负载升高</text>
  <rect width="68" height="24" x="510" y="136" fill="#fff" stroke="#788c5d" stroke-width="1.5" rx="5"/>
  <text x="544" y="152" fill="#141413" font-family="ui-monospace, monospace" font-size="9.5" text-anchor="middle">触发负载均衡</text>
  <rect width="60" height="24" x="405" y="196" fill="#fff" stroke="#788c5d" stroke-width="1.5" rx="5"/>
  <text x="435" y="212" fill="#141413" font-family="ui-monospace, monospace" font-size="9.5" text-anchor="middle">负载降低</text>
  <rect width="68" height="24" x="310" y="136" fill="#fff" stroke="#788c5d" stroke-width="1.5" rx="5"/>
  <text x="344" y="152" fill="#141413" font-family="ui-monospace, monospace" font-size="9.5" text-anchor="middle">恢复平衡</text>
  <text x="473" y="164" fill="#788c5d" font-family="ui-monospace, monospace" font-size="9" text-anchor="middle">均衡点</text>
  <circle cx="473" cy="160" r="4" fill="#788c5d"/>
  <path fill="none" stroke="#788c5d" stroke-width="1.5" d="m435 122 3 6q2 4 7 4l63 6"/>
  <path fill="#788c5d" d="m510 140-8-4 4 8z"/>
  <path fill="none" stroke="#788c5d" stroke-width="1.5" d="m544 162 6 6q2 7-2 12l-113 18"/>
  <path fill="#788c5d" d="m433 196 8 4-4-8z"/>
  <path fill="none" stroke="#788c5d" stroke-width="1.5" d="m405 198-7-6q-6-7-6-14v-18l-12-8m-2-2 8-6q8-6 14-2l33-22"/>
</svg>

<svg viewBox="0 0 640 280" xmlns="http://www.w3.org/2000/svg" font-family="ui-serif, Georgia, 'Times New Roman', serif">
  <!-- Color palette: ivory bg #FAF9F5, clay #D97757, olive #788C5D, slate #141413, g300 #D1CFC5 -->

  <!-- Background -->
  <rect width="640" height="280" fill="#FAF9F5"/>

  <!-- Title -->
  <text x="320" y="26" text-anchor="middle" font-size="13" font-weight="500" fill="#141413" letter-spacing="-0.02em">反馈回路：系统的"神经系统"</text>
  <text x="320" y="42" text-anchor="middle" font-size="10" fill="#87867F" font-family="ui-monospace, monospace">增强回路 vs 平衡回路</text>

  <!-- LEFT: Positive Feedback (增强回路) -->
  <rect x="24" y="56" width="286" height="196" rx="8" fill="#FFFFFF" stroke="#D97757" stroke-width="1.5"/>
  <text x="167" y="78" text-anchor="middle" font-size="11" font-weight="600" fill="#D97757" font-family="ui-monospace, monospace">正反馈回路 · 增强回路</text>

  <!-- Positive loop circle -->
  <circle cx="167" cy="160" r="62" fill="none" stroke="#D97757" stroke-width="2" stroke-dasharray="6,4" opacity="0.7"/>
  <polygon points="167,98 161,112 173,112" fill="#D97757" opacity="0.7"/>

  <!-- Nodes for positive loop -->
  <rect x="130" y="82" width="74" height="24" rx="5" fill="#D97757"/>
  <text x="167" y="98" text-anchor="middle" font-size="9.5" fill="#FFFFFF" font-family="ui-monospace, monospace">Agent 加入</text>

  <rect x="200" y="120" width="78" height="24" rx="5" fill="#FFFFFF" stroke="#D97757" stroke-width="1.5"/>
  <text x="239" y="136" text-anchor="middle" font-size="9.5" fill="#141413" font-family="ui-monospace, monospace">系统能力增强</text>

  <rect x="130" y="204" width="74" height="24" rx="5" fill="#FFFFFF" stroke="#D97757" stroke-width="1.5"/>
  <text x="167" y="220" text-anchor="middle" font-size="9.5" fill="#141413" font-family="ui-monospace, monospace">吸引更多 Agent</text>

  <rect x="58" y="120" width="74" height="24" rx="5" fill="#FFFFFF" stroke="#D97757" stroke-width="1.5"/>
  <text x="95" y="136" text-anchor="middle" font-size="9.5" fill="#141413" font-family="ui-monospace, monospace">数据质量↑</text>

  <!-- Arrows for positive loop -->
  <path d="M 167 106 L 167 118" stroke="#D97757" stroke-width="1.5" fill="none"/>
  <polygon points="167,120 163,112 171,112" fill="#D97757"/>
  <path d="M 239 146 L 248 150 Q 252 155 248 160 L 204 200" stroke="#D97757" stroke-width="1.5" fill="none"/>
  <path d="M 204 204 L 200 198 Q 195 195 190 200 L 168 204" stroke="#D97757" stroke-width="1.5" fill="none"/>
  <path d="M 130 204 L 122 200 Q 115 195 115 188 L 115 146" stroke="#D97757" stroke-width="1.5" fill="none"/>
  <path d="M 115 144 L 122 150 Q 127 155 132 150 L 168 120" stroke="#D97757" stroke-width="1.5" fill="none"/>

  <!-- RIGHT: Negative Feedback (平衡回路) -->
  <rect x="330" y="56" width="286" height="196" rx="8" fill="#FFFFFF" stroke="#788C5D" stroke-width="1.5"/>
  <text x="473" y="78" text-anchor="middle" font-size="11" font-weight="600" fill="#788C5D" font-family="ui-monospace, monospace">负反馈回路 · 平衡回路</text>

  <!-- Negative loop: equilibrium symbol -->
  <line x1="473" y1="100" x2="473" y2="218" stroke="#788C5D" stroke-width="1.5" opacity="0.4"/>
  <line x1="390" y1="160" x2="556" y2="160" stroke="#788C5D" stroke-width="1.5" opacity="0.4"/>

  <!-- Nodes for negative loop -->
  <rect x="405" y="96" width="60" height="24" rx="5" fill="#788C5D"/>
  <text x="435" y="112" text-anchor="middle" font-size="9.5" fill="#FFFFFF" font-family="ui-monospace, monospace">负载升高</text>

  <rect x="510" y="136" width="68" height="24" rx="5" fill="#FFFFFF" stroke="#788C5D" stroke-width="1.5"/>
  <text x="544" y="152" text-anchor="middle" font-size="9.5" fill="#141413" font-family="ui-monospace, monospace">触发负载均衡</text>

  <rect x="405" y="196" width="60" height="24" rx="5" fill="#FFFFFF" stroke="#788C5D" stroke-width="1.5"/>
  <text x="435" y="212" text-anchor="middle" font-size="9.5" fill="#141413" font-family="ui-monospace, monospace">负载降低</text>

  <rect x="310" y="136" width="68" height="24" rx="5" fill="#FFFFFF" stroke="#788C5D" stroke-width="1.5"/>
  <text x="344" y="152" text-anchor="middle" font-size="9.5" fill="#141413" font-family="ui-monospace, monospace">恢复平衡</text>

  <!-- Equilibrium label -->
  <text x="473" y="164" text-anchor="middle" font-size="9" fill="#788C5D" font-family="ui-monospace, monospace">均衡点</text>
  <circle cx="473" cy="160" r="4" fill="#788C5D"/>

  <!-- Arrows for negative loop -->
  <path d="M 435 122 L 438 128 Q 440 132 445 132 L 508 138" stroke="#788C5D" stroke-width="1.5" fill="none"/>
  <polygon points="510,140 502,136 506,144" fill="#788C5D"/>
  <path d="M 544 162 L 550 168 Q 552 175 548 180 L 435 198" stroke="#788C5D" stroke-width="1.5" fill="none"/>
  <polygon points="433,196 441,200 437,192" fill="#788C5D"/>
  <path d="M 405 198 L 398 192 Q 392 185 392 178 L 392 160 L 380 152" stroke="#788C5D" stroke-width="1.5" fill="none"/>
  <path d="M 378 150 L 386 144 Q 394 138 400 142 L 433 120" stroke="#788C5D" stroke-width="1.5" fill="none"/>
</svg>
